icons/outline/brand-grindr.svg

<svg xmlns="http://www.w3.org/2000/svg" width="24" height="24" viewBox="0 0 24 24" fill="none" stroke="currentColor" stroke-width="2" stroke-linecap="round" stroke-linejoin="round"><path d="M13 13.282c0 .492 .784 1.718 2.102 1.718c1.318 0 2.898 -.966 2.898 -2.062c0 -.817 -.932 -.938 -1.409 -.938c-.228 0 -3.591 .111 -3.591 1.282z"/><path d="M12 21c-2.984 0 -6.471 -2.721 -6.63 -2.982c-2.13 -3.49 -2.37 -13.703 -2.37 -13.703l1.446 -1.315c2.499 .39 5.023 .617 7.554 .68a58.626 58.626 0 0 0 7.554 -.68l1.446 1.315s-.24 10.213 -2.37 13.704c-.16 .26 -3.646 2.981 -6.63 2.981z"/><path d="M11 13.282c0 .492 -.784 1.718 -2.102 1.718c-1.318 0 -2.898 -.966 -2.898 -2.062c0 -.817 .932 -.938 1.409 -.938c.228 0 3.591 .111 3.591 1.282z"/></svg>

<svg xmlns="http://www.w3.org/2000/svg" width="24" height="24" fill="none" stroke="currentColor" stroke-linecap="round" stroke-linejoin="round" stroke-width="2"><path d="M13 13.282c0 .492.784 1.718 2.102 1.718S18 14.034 18 12.938c0-.817-.932-.938-1.409-.938-.228 0-3.591.111-3.591 1.282"/><path d="M12 21c-2.984 0-6.471-2.721-6.63-2.982C3.24 14.528 3 4.315 3 4.315L4.446 3c2.499.39 5.023.617 7.554.68A59 59 0 0 0 19.554 3L21 4.315s-.24 10.213-2.37 13.704C18.47 18.279 14.984 21 12 21"/><path d="M11 13.282C11 13.774 10.216 15 8.898 15S6 14.034 6 12.938c0-.817.932-.938 1.409-.938.228 0 3.591.111 3.591 1.282"/></svg>
